Numix-Circle/48x48/apps/granatier.svg

<?xml version="1.0" encoding="UTF-8" standalone="no"?>
<svg
   xmlns:dc="http://purl.org/dc/elements/1.1/"
   xmlns:cc="http://creativecommons.org/ns#"
   xmlns:rdf="http://www.w3.org/1999/02/22-rdf-syntax-ns#"
   xmlns:svg="http://www.w3.org/2000/svg"
   xmlns="http://www.w3.org/2000/svg"
   xmlns:xlink="http://www.w3.org/1999/xlink"
   xmlns:sodipodi="http://sodipodi.sourceforge.net/DTD/sodipodi-0.dtd"
   xmlns:inkscape="http://www.inkscape.org/namespaces/inkscape"
   viewBox="0 0 48 48"
   id="svg2"
   version="1.1"
   inkscape:version="0.91 r13725"
   sodipodi:docname="granatier.svg">
  <metadata
     id="metadata77">
    <rdf:RDF>
      <cc:Work
         rdf:about="">
        <dc:format>image/svg+xml</dc:format>
        <dc:type
           rdf:resource="http://purl.org/dc/dcmitype/StillImage" />
        <dc:title></dc:title>
      </cc:Work>
    </rdf:RDF>
  </metadata>
  <sodipodi:namedview
     pagecolor="#ffffff"
     bordercolor="#666666"
     borderopacity="1"
     objecttolerance="10"
     gridtolerance="10"
     guidetolerance="10"
     inkscape:pageopacity="0"
     inkscape:pageshadow="2"
     inkscape:window-width="1366"
     inkscape:window-height="713"
     id="namedview75"
     showgrid="false"
     showguides="false"
     inkscape:zoom="11.313708"
     inkscape:cx="11.007294"
     inkscape:cy="26.071068"
     inkscape:window-x="0"
     inkscape:window-y="28"
     inkscape:window-maximized="1"
     inkscape:current-layer="svg2">
    <inkscape:grid
       type="xygrid"
       id="grid3405" />
  </sodipodi:namedview>
  <defs
     id="defs4">
    <linearGradient
       id="linearGradient3764"
       x1="1"
       x2="47"
       gradientUnits="userSpaceOnUse"
       gradientTransform="matrix(0,-1,1,0,-1.5e-6,47.999998)">
      <stop
         stop-color="#f49950"
         stop-opacity="1"
         id="stop7" />
      <stop
         offset="1"
         stop-color="#f5a562"
         stop-opacity="1"
         id="stop9" />
    </linearGradient>
    <radialGradient
       inkscape:collect="always"
       xlink:href="#linearGradient4273"
       id="radialGradient4279"
       cx="24.247507"
       cy="5.1446886"
       fx="24.247507"
       fy="5.1446886"
       r="2.9379082"
       gradientTransform="matrix(1,0,0,1.0050523,0,-0.0259923)"
       gradientUnits="userSpaceOnUse" />
    <linearGradient
       inkscape:collect="always"
       id="linearGradient4273">
      <stop
         style="stop-color:#eff5ba;stop-opacity:1"
         offset="0"
         id="stop4275" />
      <stop
         style="stop-color:#e2ed85;stop-opacity:1"
         offset="1"
         id="stop4277" />
    </linearGradient>
  </defs>
  <g
     id="g21">
    <path
       d="m 36.31 5 c 5.859 4.062 9.688 10.831 9.688 18.5 c 0 12.426 -10.07 22.5 -22.5 22.5 c -7.669 0 -14.438 -3.828 -18.5 -9.688 c 1.037 1.822 2.306 3.499 3.781 4.969 c 4.085 3.712 9.514 5.969 15.469 5.969 c 12.703 0 23 -10.298 23 -23 c 0 -5.954 -2.256 -11.384 -5.969 -15.469 c -1.469 -1.475 -3.147 -2.744 -4.969 -3.781 z m 4.969 3.781 c 3.854 4.113 6.219 9.637 6.219 15.719 c 0 12.703 -10.297 23 -23 23 c -6.081 0 -11.606 -2.364 -15.719 -6.219 c 4.16 4.144 9.883 6.719 16.219 6.719 c 12.703 0 23 -10.298 23 -23 c 0 -6.335 -2.575 -12.06 -6.719 -16.219 z"
       opacity="0.05"
       id="path23" />
    <path
       d="m 41.28 8.781 c 3.712 4.085 5.969 9.514 5.969 15.469 c 0 12.703 -10.297 23 -23 23 c -5.954 0 -11.384 -2.256 -15.469 -5.969 c 4.113 3.854 9.637 6.219 15.719 6.219 c 12.703 0 23 -10.298 23 -23 c 0 -6.081 -2.364 -11.606 -6.219 -15.719 z"
       opacity="0.1"
       id="path25" />
    <path
       d="m 31.25 2.375 c 8.615 3.154 14.75 11.417 14.75 21.13 c 0 12.426 -10.07 22.5 -22.5 22.5 c -9.708 0 -17.971 -6.135 -21.12 -14.75 a 23 23 0 0 0 44.875 -7 a 23 23 0 0 0 -16 -21.875 z"
       opacity="0.2"
       id="path27" />
  </g>
  <g
     id="g29">
    <path
       d="m 24 1 c 12.703 0 23 10.297 23 23 c 0 12.703 -10.297 23 -23 23 -12.703 0 -23 -10.297 -23 -23 0 -12.703 10.297 -23 23 -23 z"
       fill="url(#linearGradient3764)"
       fill-opacity="1"
       id="path31" />
  </g>
  <g
     id="g33" />
  <g
     id="g71">
    <path
       d="m 40.03 7.531 c 3.712 4.084 5.969 9.514 5.969 15.469 0 12.703 -10.297 23 -23 23 c -5.954 0 -11.384 -2.256 -15.469 -5.969 4.178 4.291 10.01 6.969 16.469 6.969 c 12.703 0 23 -10.298 23 -23 0 -6.462 -2.677 -12.291 -6.969 -16.469 z"
       opacity="0.1"
       id="path73" />
  </g>
  <path
     style="color:#000000;font-style:normal;font-variant:normal;font-weight:normal;font-stretch:normal;font-size:medium;line-height:normal;font-family:sans-serif;text-indent:0;text-align:start;text-decoration:none;text-decoration-line:none;text-decoration-style:solid;text-decoration-color:#000000;letter-spacing:normal;word-spacing:normal;text-transform:none;direction:ltr;block-progression:tb;writing-mode:lr-tb;baseline-shift:baseline;text-anchor:start;white-space:normal;clip-rule:nonzero;display:inline;overflow:visible;visibility:visible;opacity:1;isolation:auto;mix-blend-mode:normal;color-interpolation:sRGB;color-interpolation-filters:linearRGB;solid-color:#000000;solid-opacity:1;fill:#000000;fill-opacity:0.09803922;fill-rule:evenodd;stroke:none;stroke-width:1.5;stroke-linecap:butt;stroke-linejoin:miter;stroke-miterlimit:4;stroke-dasharray:none;stroke-dashoffset:0;stroke-opacity:1;color-rendering:auto;image-rendering:auto;shape-rendering:auto;text-rendering:auto;enable-background:accumulate"
     d="m 26.796875,9.0019527 c -0.462522,0.075962 0.110811,2.1200873 -0.207031,2.4628913 -0.317842,0.342803 -2.333011,-0.255022 -2.41211,0.197265 -0.0306,0.174981 0.295238,0.301036 0.683594,0.417969 -0.266156,0.116151 -0.506375,0.253411 -0.708983,0.435547 -0.3582,0.32201 -0.563209,0.778285 -0.611329,1.203125 -0.04812,0.424841 0.02161,0.82134 0.11914,1.214844 0.173127,0.698499 0.429163,1.374913 0.617188,2.066406 L 22.000001,17 22,19.472656 A 10,10 0 0 0 15,29 10,10 0 0 0 25,39 10,10 0 0 0 35,29.000001 10,10 0 0 0 28,19.462892 L 28,17 25.851562,17 c -0.214997,-0.977779 -0.581122,-1.801539 -0.736327,-2.427734 -0.128104,-0.851191 0.476223,-1.161856 1.212886,-1.294925 -0.24811,0.660631 -0.771256,1.57289 -0.470702,1.708984 0.420494,0.190404 1.167551,-1.625219 1.628904,-1.716798 0.461357,-0.09158 1.797903,1.441144 2.123048,1.105469 0.325178,-0.335644 -1.328146,-1.604612 -1.255859,-2.066406 0.07229,-0.461791 2.019997,-1.193966 1.804691,-1.599606 -0.215306,-0.405639 -1.898439,0.685529 -2.324218,0.492188 -0.42578,-0.193342 -0.574588,-2.2751809 -1.03711,-2.1992193 z"
     id="path4218"
     inkscape:connector-curvature="0" />
  <g
     id="g4266"
     transform="matrix(0.70710678,0.70710678,-0.70710678,0.70710678,24.679028,-8.0905264)">
    <path
       inkscape:connector-curvature="0"
       id="path4213"
       d="m 14.663313,11.840643 c -1.205821,1.251757 -1.827717,2.141555 -1.878906,3.103515 -0.02559,0.480981 0.151588,0.946817 0.417969,1.28125 0.266381,0.334433 0.596144,0.566107 0.943359,0.775391 1.38886,0.837136 3.026066,1.256264 3.856218,2.964045 l 1.347656,-0.65625 c -1.135838,-2.336637 -3.343155,-2.935639 -4.430436,-3.590998 -1.120244,-0.827161 0.111639,-2.013437 0.824218,-2.835938 z"
       style="color:#000000;font-style:normal;font-variant:normal;font-weight:normal;font-stretch:normal;font-size:medium;line-height:normal;font-family:sans-serif;text-indent:0;text-align:start;text-decoration:none;text-decoration-line:none;text-decoration-style:solid;text-decoration-color:#000000;letter-spacing:normal;word-spacing:normal;text-transform:none;direction:ltr;block-progression:tb;writing-mode:lr-tb;baseline-shift:baseline;text-anchor:start;white-space:normal;clip-rule:nonzero;display:inline;overflow:visible;visibility:visible;opacity:1;isolation:auto;mix-blend-mode:normal;color-interpolation:sRGB;color-interpolation-filters:linearRGB;solid-color:#000000;solid-opacity:1;fill:#524c30;fill-opacity:1;fill-rule:evenodd;stroke:none;stroke-width:1.5;stroke-linecap:butt;stroke-linejoin:miter;stroke-miterlimit:4;stroke-dasharray:none;stroke-dashoffset:0;stroke-opacity:1;color-rendering:auto;image-rendering:auto;shape-rendering:auto;text-rendering:auto;enable-background:accumulate"
       sodipodi:nodetypes="csssccccc" />
    <circle
       transform="matrix(0.70710678,-0.70710678,0.70710678,0.70710678,0,0)"
       r="10"
       cy="36.090527"
       cx="-0.67902833"
       id="path3407"
       style="fill:#373737;fill-opacity:1;fill-rule:evenodd;stroke:none;stroke-width:1px;stroke-linecap:butt;stroke-linejoin:miter;stroke-opacity:1" />
    <rect
       transform="matrix(0.70710678,-0.70710678,0.70710678,0.70710678,0,0)"
       y="24.090527"
       x="-3.6790283"
       height="3"
       width="6"
       id="rect4211"
       style="fill:#373737;fill-opacity:1;stroke:none" />
    <path
       transform="matrix(0.72205127,-0.72205127,0.71842162,0.71842162,-6.6473624,26.253333)"
       inkscape:transform-center-y="-0.0039582013"
       inkscape:transform-center-x="-0.25032848"
       d="M 26.631519,7.482868 C 26.313104,7.8132572 25.004785,6.304635 24.552979,6.3947718 24.101173,6.4849085 23.368575,8.2710777 22.956782,8.083672 22.54499,7.8962663 23.730752,6.1998564 23.515325,5.8030059 23.299897,5.4061555 21.234261,5.2570857 21.311722,4.8119208 c 0.07746,-0.4451649 2.052186,0.144207 2.36345,-0.1931977 0.311263,-0.3374048 -0.25151,-2.3500242 0.201439,-2.4247898 0.45295,-0.074766 0.599252,1.9749805 1.016219,2.165277 0.416966,0.1902964 2.065474,-0.8842519 2.276324,-0.4850009 0.21085,0.399251 -1.697229,1.1194894 -1.768019,1.5740107 -0.07079,0.4545213 1.5488,1.7042588 1.230384,2.0346479 z"
       inkscape:randomized="0.022"
       inkscape:rounded="0.19"
       inkscape:flatsided="false"
       sodipodi:arg2="1.3996331"
       sodipodi:arg1="0.77131459"
       sodipodi:r2="1.0452664"
       sodipodi:r1="3.167474"
       sodipodi:cy="5.2991467"
       sodipodi:cx="24.413925"
       sodipodi:sides="5"
       id="path4215"
       style="fill:url(#radialGradient4279);fill-opacity:1;stroke:none;stroke-width:1.5;stroke-miterlimit:4;stroke-dasharray:none;stroke-opacity:1"
       sodipodi:type="star" />
  </g>
  <g
     transform="matrix(0.70710678,0.70710678,-0.70710678,0.70710678,24.679028,-8.0905264)"
     id="g4216"
     style="fill:#000000" />
</svg>

<svg xmlns="http://www.w3.org/2000/svg" viewBox="0 0 48 48">
 <defs>
  <linearGradient id="linearGradient3764" x1="1" x2="47" gradientUnits="userSpaceOnUse" gradientTransform="matrix(0,-1,1,0,-1.5e-6,47.999998)">
   <stop style="stop-color:#f49950;stop-opacity:1"/>
   <stop offset="1" style="stop-color:#f5a562;stop-opacity:1"/>
  </linearGradient>
  <radialGradient id="radialGradient4279" cx="24.25" cy="5.145" r="2.938" gradientTransform="matrix(1,0,0,1.0050523,0,-0.0259923)" gradientUnits="userSpaceOnUse">
   <stop style="stop-color:#eff5ba;stop-opacity:1"/>
   <stop offset="1" style="stop-color:#e2ed85;stop-opacity:1"/>
  </radialGradient>
 </defs>
 <g>
  <path d="m 36.31 5 c 5.859 4.062 9.688 10.831 9.688 18.5 c 0 12.426 -10.07 22.5 -22.5 22.5 c -7.669 0 -14.438 -3.828 -18.5 -9.688 c 1.037 1.822 2.306 3.499 3.781 4.969 c 4.085 3.712 9.514 5.969 15.469 5.969 c 12.703 0 23 -10.298 23 -23 c 0 -5.954 -2.256 -11.384 -5.969 -15.469 c -1.469 -1.475 -3.147 -2.744 -4.969 -3.781 z m 4.969 3.781 c 3.854 4.113 6.219 9.637 6.219 15.719 c 0 12.703 -10.297 23 -23 23 c -6.081 0 -11.606 -2.364 -15.719 -6.219 c 4.16 4.144 9.883 6.719 16.219 6.719 c 12.703 0 23 -10.298 23 -23 c 0 -6.335 -2.575 -12.06 -6.719 -16.219 z" style="opacity:0.05"/>
  <path d="m 41.28 8.781 c 3.712 4.085 5.969 9.514 5.969 15.469 c 0 12.703 -10.297 23 -23 23 c -5.954 0 -11.384 -2.256 -15.469 -5.969 c 4.113 3.854 9.637 6.219 15.719 6.219 c 12.703 0 23 -10.298 23 -23 c 0 -6.081 -2.364 -11.606 -6.219 -15.719 z" style="opacity:0.1"/>
  <path d="m 31.25 2.375 c 8.615 3.154 14.75 11.417 14.75 21.13 c 0 12.426 -10.07 22.5 -22.5 22.5 c -9.708 0 -17.971 -6.135 -21.12 -14.75 a 23 23 0 0 0 44.875 -7 a 23 23 0 0 0 -16 -21.875 z" style="opacity:0.2"/>
 </g>
 <g>
  <path d="m 24 1 c 12.703 0 23 10.297 23 23 c 0 12.703 -10.297 23 -23 23 -12.703 0 -23 -10.297 -23 -23 0 -12.703 10.297 -23 23 -23 z" style="fill:url(#linearGradient3764);fill-opacity:1"/>
 </g>
 <g>
  <path d="m 40.03 7.531 c 3.712 4.084 5.969 9.514 5.969 15.469 0 12.703 -10.297 23 -23 23 c -5.954 0 -11.384 -2.256 -15.469 -5.969 4.178 4.291 10.01 6.969 16.469 6.969 c 12.703 0 23 -10.298 23 -23 0 -6.462 -2.677 -12.291 -6.969 -16.469 z" style="opacity:0.1"/>
 </g>
 <path d="m 26.797 9 c -0.463 0.076 0.111 2.12 -0.207 2.463 -0.318 0.343 -2.333 -0.255 -2.412 0.197 -0.031 0.175 0.295 0.301 0.684 0.418 -0.266 0.116 -0.506 0.253 -0.709 0.436 -0.358 0.322 -0.563 0.778 -0.611 1.203 -0.048 0.425 0.022 0.821 0.119 1.215 0.173 0.698 0.429 1.375 0.617 2.066 l -2.277 0 0 2.473 a 10 10 0 0 0 -7 9.527 10 10 0 0 0 10 10 10 10 0 0 0 10 -10 10 10 0 0 0 -7 -9.537 l 0 -2.463 -2.148 0 c -0.215 -0.978 -0.581 -1.802 -0.736 -2.428 -0.128 -0.851 0.476 -1.162 1.213 -1.295 -0.248 0.661 -0.771 1.573 -0.471 1.709 0.42 0.19 1.168 -1.625 1.629 -1.717 0.461 -0.092 1.798 1.441 2.123 1.105 0.325 -0.336 -1.328 -1.605 -1.256 -2.066 0.072 -0.462 2.02 -1.194 1.805 -1.6 -0.215 -0.406 -1.898 0.686 -2.324 0.492 -0.426 -0.193 -0.575 -2.275 -1.037 -2.199 z" mix-blend-mode="normal" isolation="auto" white-space="normal" solid-opacity="1" solid-color="#000000" style="visibility:visible;shape-rendering:auto;color-interpolation-filters:linearRGB;fill:#000;opacity:1;image-rendering:auto;fill-opacity:0.098;stroke:none;display:inline;color:#000;fill-rule:evenodd;color-rendering:auto;color-interpolation:sRGB"/>
 <g transform="matrix(0.70710678,0.70710678,-0.70710678,0.70710678,24.679028,-8.0905264)">
  <path d="m 14.663 11.841 c -1.206 1.252 -1.828 2.142 -1.879 3.104 -0.026 0.481 0.152 0.947 0.418 1.281 0.266 0.334 0.596 0.566 0.943 0.775 1.389 0.837 3.03 1.256 3.856 2.964 l 1.348 -0.656 c -1.136 -2.337 -3.343 -2.936 -4.43 -3.591 -1.12 -0.827 0.112 -2.01 0.824 -2.836 z" mix-blend-mode="normal" isolation="auto" white-space="normal" solid-opacity="1" solid-color="#000000" style="visibility:visible;shape-rendering:auto;color-interpolation-filters:linearRGB;fill:#524c30;opacity:1;image-rendering:auto;fill-opacity:1;stroke:none;display:inline;color:#000;fill-rule:evenodd;color-rendering:auto;color-interpolation:sRGB"/>
  <circle transform="matrix(0.70710678,-0.70710678,0.70710678,0.70710678,0,0)" r="10" cy="36.09" cx="-0.679" style="fill:#373737;fill-opacity:1;stroke:none;fill-rule:evenodd"/>
  <rect transform="matrix(0.70710678,-0.70710678,0.70710678,0.70710678,0,0)" y="24.09" x="-3.679" height="3" width="6" style="fill:#373737;fill-opacity:1;stroke:none"/>
  <path transform="matrix(0.72205127,-0.72205127,0.71842162,0.71842162,-6.6473624,26.253333)" d="m 26.632 7.483 c -0.318 0.33 -1.627 -1.178 -2.079 -1.088 -0.452 0.09 -1.184 1.876 -1.596 1.689 -0.412 -0.187 0.774 -1.884 0.559 -2.281 -0.215 -0.397 -2.281 -0.546 -2.204 -0.991 c 0.077 -0.445 2.052 0.144 2.363 -0.193 0.311 -0.337 -0.252 -2.35 0.201 -2.425 0.453 -0.075 0.599 1.975 1.016 2.165 0.417 0.19 2.065 -0.884 2.276 -0.485 0.211 0.399 -1.697 1.119 -1.768 1.574 -0.071 0.455 1.549 1.704 1.23 2.035 z" style="fill:url(#radialGradient4279);fill-opacity:1;stroke:none"/>
 </g>
</svg>
